icons/exchange.svg

<svg width="24" height="24" viewBox="0 0 24 24" fill="none" xmlns="http://www.w3.org/2000/svg">
<path fill-rule="evenodd" clip-rule="evenodd" d="M18.5365 18.0001H3.00191C2.33214 18.0001 1.99817 17.6667 2.00001 17.0001C2.00185 16.3335 2.33519 16.0002 3.00001 16.0002H18.467L17.3301 14.8633C16.9396 14.4728 16.9396 13.8396 17.3301 13.4491C17.7206 13.0586 18.3538 13.0586 18.7443 13.4491L21.623 16.3278C22.0135 16.7183 22.0135 17.3515 21.623 17.742L18.7429 20.622C18.3524 21.0126 17.7192 21.0126 17.3287 20.622C16.9382 20.2315 16.9382 19.5983 17.3287 19.2078L18.5365 18.0001ZM5.60618 6.00005H21C21.6667 5.99652 22.0001 6.33048 22.0001 7.00193C22.0001 7.67338 21.6667 8.00609 21 8.00005H5.53654L6.74431 9.20782C7.13484 9.59834 7.13484 10.2315 6.74431 10.622C6.35379 11.0126 5.72062 11.0126 5.3301 10.622L2.45004 7.74198C2.05952 7.35145 2.05952 6.71829 2.45004 6.32776L5.32872 3.44908C5.71924 3.05856 6.35241 3.05856 6.74293 3.44908C7.13346 3.83961 7.13346 4.47277 6.74293 4.8633L5.60618 6.00005Z" fill="#3A3A47"/>
</svg>

<svg xmlns="http://www.w3.org/2000/svg" width="24" height="24" viewBox="0 0 24 24">
    <path fill="#3A3A47" fill-rule="evenodd" d="M18.744 13.45l2.879 2.878a1 1 0 0 1 0 1.414l-2.88 2.88a1 1 0 0 1-1.414-1.414l1.207-1.209L3.002 18c-.622 0-.954-.287-.997-.862L2 17c.002-.667.335-1 1-1h15.466l-1.136-1.137a1 1 0 0 1 1.414-1.414zm-12.001-10a1 1 0 0 1 .083 1.32l-.083.093L5.606 6 21 6c.622-.003.954.287.996.872l.004.13c0 .627-.29.958-.871.995L21 8H5.536l1.208 1.208a1 1 0 0 1 .083 1.32l-.083.094a1 1 0 0 1-1.32.083l-.094-.083-2.88-2.88a1 1 0 0 1-.083-1.32l.083-.094 2.879-2.879a1 1 0 0 1 1.414 0z"/>
</svg>
